src/assets/Imgs/social/email.svg

<svg fill="none" height="24" viewBox="0 0 24 24" width="24" xmlns="http://www.w3.org/2000/svg"><path clip-rule="evenodd" d="m14.593 7.5c.704 0 1.3812.27825 1.8795.77753.4987.49822.7775 1.17022.7775 1.87377v4.1475c0 1.4647-1.1917 2.6512-2.657 2.6512h-5.1865c-1.46527 0-2.6565-1.1865-2.6565-2.6512v-4.1475c0-1.4648 1.18597-2.6513 2.6565-2.6513zm.8354 3.4335.042-.042c.1254-.1523.1254-.3728-.0058-.525-.073-.0783-.1733-.126-.2777-.1365-.1103-.0058-.2153.0315-.2946.105l-2.3672 1.89c-.3045.2525-.7408.2525-1.05 0l-2.36249-1.89c-.16328-.1208-.38903-.105-.525.0367-.14175.1418-.1575.3675-.03728.525l.06878.0683 2.38879 1.8637c.294.231.6504.357 1.0237.357.3722 0 .735-.126 1.0285-.357z" fill="#f9b617" fill-rule="evenodd"/></svg>

<svg width="24" height="24" viewBox="0 0 24 24" fill="none" xmlns="http://www.w3.org/2000/svg">
<g id="Dis">
<g id="Message">
<path id="Message_2" fill-rule="evenodd" clip-rule="evenodd" d="M14.593 7.5C15.297 7.5 15.9742 7.77825 16.4725 8.27753C16.9712 8.77575 17.25 9.44775 17.25 10.1513V14.2988C17.25 15.7635 16.0583 16.95 14.593 16.95H9.4065C7.94123 16.95 6.75 15.7635 6.75 14.2988V10.1513C6.75 8.6865 7.93597 7.5 9.4065 7.5H14.593ZM15.4284 10.9335L15.4704 10.8915C15.5958 10.7392 15.5958 10.5187 15.4646 10.3665C15.3916 10.2882 15.2913 10.2405 15.1869 10.23C15.0766 10.2242 14.9716 10.2615 14.8923 10.335L12.5251 12.225C12.2206 12.4775 11.7843 12.4775 11.4751 12.225L9.11261 10.335C8.94933 10.2142 8.72358 10.23 8.58761 10.3717C8.44586 10.5135 8.43011 10.7392 8.55033 10.8967L8.61911 10.965L11.0079 12.8287C11.3019 13.0597 11.6583 13.1857 12.0316 13.1857C12.4038 13.1857 12.7666 13.0597 13.0601 12.8287L15.4284 10.9335Z" fill="#F9B617"/>
</g>
</g>
</svg>
